X:184
T:B184-  He that loves best must suffer most
S:(2nd/2)
Q:1/4=120
L:1/4
M:3/4
K:F
cfa|f2c|dc2|A3|FAB|c2f|dg2|e3||\
fga|f2e|ae2|d2c|cA2|B2c|fAG|F3|]
